figures/course_structure.svg

<?xml version="1.0" encoding="UTF-8" standalone="no"?>
<svg
   xmlns:dc="http://purl.org/dc/elements/1.1/"
   xmlns:cc="http://creativecommons.org/ns#"
   xmlns:rdf="http://www.w3.org/1999/02/22-rdf-syntax-ns#"
   xmlns:svg="http://www.w3.org/2000/svg"
   xmlns="http://www.w3.org/2000/svg"
   viewBox="0 0 2133.3333 400"
   height="400"
   width="2133.3333"
   xml:space="preserve"
   id="svg2"
   version="1.1"><metadata
     id="metadata8"><rdf:RDF><cc:Work
         rdf:about=""><dc:format>image/svg+xml</dc:format><dc:type
           rdf:resource="http://purl.org/dc/dcmitype/StillImage" /></cc:Work></rdf:RDF></metadata><defs
     id="defs6"><clipPath
       id="clipPath20"
       clipPathUnits="userSpaceOnUse"><path
         id="path18"
         d="M 0,0 H 1600 V 300 H 0 Z" /></clipPath></defs><g
     transform="matrix(1.3333333,0,0,-1.3333333,0,400)"
     id="g10"><g
       id="g12" /><g
       id="g14"><g
         clip-path="url(#clipPath20)"
         id="g16"><path
           id="path22"
           style="fill:#f9f7f7;fill-opacity:1;fill-rule:nonzero;stroke:none"
           d="M 0,300 H 1600 V 0 H 0 Z" /><path
           id="path24"
           style="fill:#8a0000;fill-opacity:1;fill-rule:nonzero;stroke:none"
           d="m 600.5677,170.8321 c 10.7625,-10.7624 10.7625,-28.2117 0,-38.9741 -10.7624,-10.7624 -28.2117,-10.7624 -38.9741,0 -10.7624,10.7624 -10.7624,28.2117 0,38.9741 10.7624,10.7624 28.2117,10.7624 38.9741,0 z" /><path
           id="path26"
           style="fill:#8a0000;fill-opacity:1;fill-rule:nonzero;stroke:none"
           d="m 829.6802,170.8321 c 10.7624,-10.7624 10.7624,-28.2117 0,-38.9741 -10.7624,-10.7624 -28.2118,-10.7624 -38.9742,0 -10.7624,10.7624 -10.7624,28.2117 0,38.9741 10.7624,10.7624 28.2118,10.7624 38.9742,0 z" /><path
           id="path28"
           style="fill:#8a0000;fill-opacity:1;fill-rule:nonzero;stroke:none"
           d="m 1058.793,170.8321 c 10.762,-10.7624 10.762,-28.2117 0,-38.9741 -10.763,-10.7624 -28.212,-10.7624 -38.974,0 -10.763,10.7624 -10.763,28.2117 0,38.9741 10.762,10.7624 28.211,10.7624 38.974,0 z" /><g
           transform="matrix(1,0,0,-1,42.96199,151.3451)"
           id="g30"><path
             id="path32"
             style="fill:none;stroke:#5e5e5e;stroke-width:10;stroke-linecap:butt;stroke-linejoin:miter;stroke-miterlimit:4;stroke-dasharray:none;stroke-opacity:1"
             d="M 0,0 H 416.1462" /></g><g
           transform="matrix(1,0,0,-1,480.891,151.3451)"
           id="g34"><path
             id="path36"
             style="fill:none;stroke:#8a0000;stroke-width:10;stroke-linecap:butt;stroke-linejoin:miter;stroke-miterlimit:4;stroke-dasharray:none;stroke-opacity:1"
             d="M 0,0 H 776.4248" /></g><g
           transform="matrix(1,0,0,-1,1276.851,151.3451)"
           id="g38"><path
             id="path40"
             style="fill:none;stroke:#5e5e5e;stroke-width:10;stroke-linecap:butt;stroke-linejoin:miter;stroke-miterlimit:4;stroke-dasharray:none;stroke-opacity:1"
             d="M 0,0 H 263.6635" /></g><path
           id="path42"
           style="fill:#8a0000;fill-opacity:1;fill-rule:nonzero;stroke:none"
           d="m 484.5322,170.8321 c 10.7624,-10.7624 10.7624,-28.2117 0,-38.9741 -10.7625,-10.7624 -28.2118,-10.7624 -38.9742,0 -10.7624,10.7624 -10.7624,28.2117 0,38.9741 10.7624,10.7624 28.2117,10.7624 38.9742,0 z" /><path
           id="path44"
           style="fill:#8a0000;fill-opacity:1;fill-rule:nonzero;stroke:none"
           d="m 1287.905,170.8321 c 10.762,-10.7624 10.762,-28.2117 0,-38.9741 -10.762,-10.7624 -28.212,-10.7624 -38.974,0 -10.762,10.7624 -10.762,28.2117 0,38.9741 10.762,10.7624 28.212,10.7624 38.974,0 z" /><path
           id="path46"
           style="fill:#5e5e5e;fill-opacity:1;fill-rule:nonzero;stroke:none"
           d="m 67.43161,170.8321 c 10.76241,-10.7624 10.76241,-28.2117 0,-38.9741 -10.76241,-10.7624 -28.21173,-10.7624 -38.97414,0 -10.76241,10.7624 -10.76241,28.2117 0,38.9741 10.76241,10.7624 28.21173,10.7624 38.97414,0 z" /><path
           id="path48"
           style="fill:#5e5e5e;fill-opacity:1;fill-rule:nonzero;stroke:none"
           d="m 1545.952,170.8321 c 10.763,-10.7624 10.763,-28.2117 0,-38.9741 -10.762,-10.7624 -28.211,-10.7624 -38.974,0 -10.762,10.7624 -10.762,28.2117 0,38.9741 10.763,10.7624 28.212,10.7624 38.974,0 z" /><g
           transform="translate(146.8811,251.9755)"
           id="g50"><text
             id="text54"
             style="font-variant:normal;font-weight:normal;font-size:40px;font-family:Nunito;-inkscape-font-specification:Nunito-Regular;writing-mode:lr-tb;fill:#5e5e5e;fill-opacity:1;fill-rule:nonzero;stroke:none"
             transform="scale(1,-1)"><tspan
               id="tspan52"
               y="0"
               x="0 23.32 37.400002 59.119999 76.68 95.199997 107.04 128.24001 147.48 166.72 177.03999 198.24001 216.75999 231 240.28 260.88 270.16 284.39999">pre-class activity</tspan></text>
</g><g
           transform="translate(240.5694,24.26422)"
           id="g56"><text
             id="text60"
             style="font-variant:normal;font-weight:normal;font-size:40px;font-family:Nunito;-inkscape-font-specification:Nunito-Regular;writing-mode:lr-tb;fill:#8a0000;fill-opacity:1;fill-rule:nonzero;stroke:none"
             transform="scale(1,-1)"><tspan
               id="tspan58"
               y="0"
               x="0 34.240002 43.52 66.239998 89.559998 102.88 125.32 137.16 159.88 181.16 200.39999 219.64 229.96001 253.28 267.39999 288.60001 307.12 321.35999 330.64001 348.76001">mindfulness practice</tspan></text>
</g><g
           transform="translate(578.7568,251.9755)"
           id="g62"><text
             id="text66"
             style="font-variant:normal;font-weight:normal;font-size:40px;font-family:Nunito;-inkscape-font-specification:Nunito-Regular;writing-mode:lr-tb;fill:#8a0000;fill-opacity:1;fill-rule:nonzero;stroke:none"
             transform="scale(1,-1)"><tspan
               id="tspan64"
               y="0"
               x="0 23.440001 45.880001 67.160004 86.199997 100.2 110.52 122.16 143.44 161.96001 175.96001 198.39999 212.48">guest lecture</tspan></text>
</g><g
           transform="translate(691.8096,24.26422)"
           id="g68"><text
             id="text72"
             style="font-variant:normal;font-weight:normal;font-size:40px;font-family:Nunito;-inkscape-font-specification:Nunito-Regular;writing-mode:lr-tb;fill:#8a0000;fill-opacity:1;fill-rule:nonzero;stroke:none"
             transform="scale(1,-1)"><tspan
               id="tspan70"
               y="0"
               x="0 11.64 32.919998 55.639999 74.879997 85.199997 108.64 122.72 144.96001 167.39999 190.72 201.03999 224.36 233.64 252.88 271.39999 293.84 313.07999 332.32001 341.60001 363.84">lens group discussion</tspan></text>
</g><g
           transform="translate(926.5092,251.9755)"
           id="g74"><text
             id="text78"
             style="font-variant:normal;font-weight:normal;font-size:40px;font-family:Nunito;-inkscape-font-specification:Nunito-Regular;writing-mode:lr-tb;fill:#8a0000;fill-opacity:1;fill-rule:nonzero;stroke:none"
             transform="scale(1,-1)"><tspan
               id="tspan76"
               y="0"
               x="0 18.84 39.400002 62.119999 76.360001 99.080002 120.36 139.60001 148.88 168.12 178.44 201.88 215.96001 238.2 260.64001 283.95999 294.28 317.60001 326.88 346.12 364.64001 387.07999 406.32001 425.56 434.84 457.07999">synthesis group discussion</tspan></text>
</g><g
           transform="translate(1166.322,24.95435)"
           id="g80"><text
             id="text84"
             style="font-variant:normal;font-weight:normal;font-size:40px;font-family:Nunito;-inkscape-font-specification:Nunito-Regular;writing-mode:lr-tb;fill:#5e5e5e;fill-opacity:1;fill-rule:nonzero;stroke:none"
             transform="scale(1,-1)"><tspan
               id="tspan82"
               y="0"
               x="0 23.32 45.560001 64.599998 78.199997 95.760002 114.28 126.12 147.32001 166.56 185.8 196.12 210.2">post-class re</tspan></text>
</g><g
           transform="translate(1166.322,24.95435)"
           id="g86"><text
             id="text90"
             style="font-variant:normal;font-weight:normal;font-size:40px;font-family:Nunito;-inkscape-font-specification:Nunito-Regular;writing-mode:lr-tb;fill:#5e5e5e;fill-opacity:1;fill-rule:nonzero;stroke:none"
             transform="matrix(1,0,0,-1,231.48,0)"><tspan
               id="tspan88"
               y="0"
               x="0">f</tspan></text>
</g><g
           transform="translate(1166.322,24.95435)"
           id="g92"><text
             id="text96"
             style="font-variant:normal;font-weight:normal;font-size:40px;font-family:Nunito;-inkscape-font-specification:Nunito-Regular;writing-mode:lr-tb;fill:#5e5e5e;fill-opacity:1;fill-rule:nonzero;stroke:none"
             transform="matrix(1,0,0,-1,256.44,0)"><tspan
               id="tspan94"
               y="0"
               x="0 21.280001 39.799999 54.040001 63.32 85.559998">ection</tspan></text>
</g><g
           transform="matrix(0,1,1,0,259.9445,164.1004)"
           id="g98"><path
             id="path100"
             style="fill:none;stroke:#5e5e5e;stroke-width:4;stroke-linecap:round;stroke-linejoin:round;stroke-miterlimit:4;stroke-dasharray:0.004, 12;stroke-dashoffset:0.5;stroke-opacity:1"
             d="M 0,0 H 62" /></g><g
           transform="matrix(0,1,1,0,1130.611,164.1004)"
           id="g102"><path
             id="path104"
             style="fill:none;stroke:#8a0000;stroke-width:4;stroke-linecap:round;stroke-linejoin:round;stroke-miterlimit:4;stroke-dasharray:0.004, 12;stroke-dashoffset:0.5;stroke-opacity:1"
             d="M 0,0 H 62" /></g><g
           transform="matrix(0,1,1,0,695.6368,164.1004)"
           id="g106"><path
             id="path108"
             style="fill:none;stroke:#8a0000;stroke-width:4;stroke-linecap:round;stroke-linejoin:round;stroke-miterlimit:4;stroke-dasharray:0.004, 12;stroke-dashoffset:0.5;stroke-opacity:1"
             d="M 0,0 H 62" /></g><g
           transform="matrix(0,1,1,0,523.0629,64.35296)"
           id="g110"><path
             id="path112"
             style="fill:none;stroke:#8a0000;stroke-width:4;stroke-linecap:round;stroke-linejoin:round;stroke-miterlimit:4;stroke-dasharray:0.004, 12;stroke-dashoffset:0.5;stroke-opacity:1"
             d="M 0,0 H 62" /></g><g
           transform="matrix(0,1,1,0,924.7493,64.35296)"
           id="g114"><path
             id="path116"
             style="fill:none;stroke:#8a0000;stroke-width:4;stroke-linecap:round;stroke-linejoin:round;stroke-miterlimit:4;stroke-dasharray:0.004, 12;stroke-dashoffset:0.5;stroke-opacity:1"
             d="M 0,0 H 62" /></g><g
           transform="matrix(0,1,1,0,1408.682,64.35296)"
           id="g118"><path
             id="path120"
             style="fill:none;stroke:#5e5e5e;stroke-width:4;stroke-linecap:round;stroke-linejoin:round;stroke-miterlimit:4;stroke-dasharray:0.004, 12;stroke-dashoffset:0.5;stroke-opacity:1"
             d="M 0,0 H 62" /></g></g></g></g></svg>

<?xml version="1.0" encoding="UTF-8" standalone="no"?>
<!DOCTYPE svg PUBLIC "-//W3C//DTD SVG 1.1//EN" "http://www.w3.org/Graphics/SVG/1.1/DTD/svg11.dtd">
<svg xmlns="http://www.w3.org/2000/svg" xmlns:xlink="http://www.w3.org/1999/xlink" version="1.1" width="1600pt" height="300pt" viewBox="0 0 1600 300">
<g enable-background="new">
<clipPath id="cp0">
<path transform="matrix(1,0,0,-1,0,300)" d="M 0 0 L 1600 0 L 1600 300 L 0 300 Z "/>
</clipPath>
<g clip-path="url(#cp0)">
<path transform="matrix(1,0,0,-1,0,300)" d="M 0 300 L 1600 300 L 1600 0 L 0 0 Z " fill="#f9f7f7"/>
<g id="Layer-1" data-name="P">
<path transform="matrix(1,0,0,-1,0,300)" d="M 600.5677 170.8321 C 611.3302 160.0697 611.3302 142.6204 600.5677 131.858 C 589.8053 121.0956 572.356 121.0956 561.5936 131.858 C 550.8312 142.6204 550.8312 160.0697 561.5936 170.8321 C 572.356 181.5945 589.8053 181.5945 600.5677 170.8321 Z M 600.5677 170.8321 " fill="#8a0000"/>
</g>
<g id="Layer-1" data-name="P">
<path transform="matrix(1,0,0,-1,0,300)" d="M 829.6802 170.8321 C 840.4426 160.0697 840.4426 142.6204 829.6802 131.858 C 818.9178 121.0956 801.4684 121.0956 790.706 131.858 C 779.9436 142.6204 779.9436 160.0697 790.706 170.8321 C 801.4684 181.5945 818.9178 181.5945 829.6802 170.8321 Z M 829.6802 170.8321 " fill="#8a0000"/>
</g>
<g id="Layer-1" data-name="P">
<path transform="matrix(1,0,0,-1,0,300)" d="M 1058.793 170.8321 C 1069.555 160.0697 1069.555 142.6204 1058.793 131.858 C 1048.03 121.0956 1030.581 121.0956 1019.819 131.858 C 1009.056 142.6204 1009.056 160.0697 1019.819 170.8321 C 1030.581 181.5945 1048.03 181.5945 1058.793 170.8321 Z M 1058.793 170.8321 " fill="#8a0000"/>
</g>
<g id="Layer-1" data-name="P">
<path transform="matrix(1,0,0,1,42.96199,148.6549)" stroke-width="10" stroke-linecap="butt" stroke-miterlimit="4" stroke-linejoin="miter" fill="none" stroke="#5e5e5e" d="M 0 0 L 416.1462 0 "/>
</g>
<g id="Layer-1" data-name="P">
<path transform="matrix(1,0,0,1,480.891,148.6549)" stroke-width="10" stroke-linecap="butt" stroke-miterlimit="4" stroke-linejoin="miter" fill="none" stroke="#8a0000" d="M 0 0 L 776.4248 0 "/>
</g>
<g id="Layer-1" data-name="P">
<path transform="matrix(1,0,0,1,1276.851,148.6549)" stroke-width="10" stroke-linecap="butt" stroke-miterlimit="4" stroke-linejoin="miter" fill="none" stroke="#5e5e5e" d="M 0 0 L 263.6635 0 "/>
</g>
<g id="Layer-1" data-name="P">
<path transform="matrix(1,0,0,-1,0,300)" d="M 484.5322 170.8321 C 495.2946 160.0697 495.2946 142.6204 484.5322 131.858 C 473.7697 121.0956 456.3204 121.0956 445.558 131.858 C 434.7956 142.6204 434.7956 160.0697 445.558 170.8321 C 456.3204 181.5945 473.7697 181.5945 484.5322 170.8321 Z M 484.5322 170.8321 " fill="#8a0000"/>
</g>
<g id="Layer-1" data-name="P">
<path transform="matrix(1,0,0,-1,0,300)" d="M 1287.905 170.8321 C 1298.667 160.0697 1298.667 142.6204 1287.905 131.858 C 1277.143 121.0956 1259.693 121.0956 1248.931 131.858 C 1238.169 142.6204 1238.169 160.0697 1248.931 170.8321 C 1259.693 181.5945 1277.143 181.5945 1287.905 170.8321 Z M 1287.905 170.8321 " fill="#8a0000"/>
</g>
<g id="Layer-1" data-name="P">
<path transform="matrix(1,0,0,-1,0,300)" d="M 67.43161 170.8321 C 78.19402 160.0697 78.19402 142.6204 67.43161 131.858 C 56.6692 121.0956 39.21988 121.0956 28.45747 131.858 C 17.69506 142.6204 17.69506 160.0697 28.45747 170.8321 C 39.21988 181.5945 56.6692 181.5945 67.43161 170.8321 Z M 67.43161 170.8321 " fill="#5e5e5e"/>
</g>
<g id="Layer-1" data-name="P">
<path transform="matrix(1,0,0,-1,0,300)" d="M 1545.952 170.8321 C 1556.715 160.0697 1556.715 142.6204 1545.952 131.858 C 1535.19 121.0956 1517.741 121.0956 1506.978 131.858 C 1496.216 142.6204 1496.216 160.0697 1506.978 170.8321 C 1517.741 181.5945 1535.19 181.5945 1545.952 170.8321 Z M 1545.952 170.8321 " fill="#5e5e5e"/>
</g>
<g id="Layer-1" data-name="P">
</g>
<g id="Layer-1" data-name="P">
<text fill="#5e5e5e" xml:space="preserve" transform="matrix(1 0 -0 1 146.8811 48.024507)" font-size="40" font-family="Nunito"><tspan y="0" x="0 23.32 37.399999 59.12 76.68 95.2 107.03999 128.23999 147.48 166.72 177.04001 198.24 216.76001 231.00002 240.28002 260.88 270.16 284.4">pre-class activity</tspan></text>
</g>
<g id="Layer-1" data-name="P">
</g>
<g id="Layer-1" data-name="P">
<text fill="#8a0000" xml:space="preserve" transform="matrix(1 0 -0 1 240.5694 275.73579)" font-size="40" font-family="Nunito"><tspan y="0" x="0 34.24 43.520006 66.240009 89.560009 102.880008 125.32001 137.16 159.88 181.16 200.40001 219.64002 229.96002 253.28003 267.40003 288.60005 307.12004 321.36003 330.64 348.76">mindfulness practice</tspan></text>
</g>
<g id="Layer-1" data-name="P">
</g>
<g id="Layer-1" data-name="P">
<text fill="#8a0000" xml:space="preserve" transform="matrix(1 0 -0 1 578.7568 48.024507)" font-size="40" font-family="Nunito"><tspan y="0" x="0 23.44 45.880006 67.16 86.20001 100.20001 110.52001 122.16002 143.44002 161.96002 175.96002 198.40003 212.48003">guest lecture</tspan></text>
</g>
<g id="Layer-1" data-name="P">
</g>
<g id="Layer-1" data-name="P">
<text fill="#8a0000" xml:space="preserve" transform="matrix(1 0 -0 1 691.8096 275.73579)" font-size="40" font-family="Nunito"><tspan y="0" x="0 11.64 32.920003 55.640005 74.880008 85.200008 108.64001 122.72001 144.96 167.40001 190.72 201.04001 224.36002 233.64002 252.88002 271.40003 293.84004 313.08003 332.32 341.6 363.84">lens group discussion</tspan></text>
</g>
<g id="Layer-1" data-name="P">
</g>
<g id="Layer-1" data-name="P">
<text fill="#8a0000" xml:space="preserve" transform="matrix(1 0 -0 1 926.5092 48.024507)" font-size="40" font-family="Nunito"><tspan y="0" x="0 18.840003 39.4 62.120004 76.36 99.08 120.36 139.6 148.88 168.12001 178.44002 201.88002 215.96002 238.20003 260.64 283.96003 294.28004 317.60005 326.88005 346.12004 364.64 387.08003 406.32 425.56 434.84 457.08">synthesis group discussion</tspan></text>
</g>
<g id="Layer-1" data-name="P">
</g>
<g id="Layer-1" data-name="P">
<text fill="#5e5e5e" xml:space="preserve" transform="matrix(1 0 -0 1 1166.322 275.04566)" font-size="40" font-family="Nunito"><tspan y="0" x="0 23.32 45.56 64.600009 78.200008 95.76 114.28 126.119998 147.31999 166.56 185.8 196.12001 210.20001">post-class re</tspan></text>
<g id="Layer-2" data-name="Span">
<text fill="#5e5e5e" xml:space="preserve" transform="matrix(1 0 -0 1 1166.322 275.04566)" font-size="40" font-family="Nunito"><tspan y="0" x="231.48">&#xfb02;</tspan></text>
</g>
<text fill="#5e5e5e" xml:space="preserve" transform="matrix(1 0 -0 1 1166.322 275.04566)" font-size="40" font-family="Nunito"><tspan y="0" x="256.44 277.72 296.24 310.47999 319.75999 341.99998">ection</tspan></text>
</g>
<g id="Layer-1" data-name="P">
<path transform="matrix(0,-1,1,0,259.9445,135.8996)" stroke-width="4" stroke-linecap="round" stroke-dasharray=".004,12" stroke-dashoffset=".5" stroke-linejoin="round" fill="none" stroke="#5e5e5e" d="M 0 0 L 62 0 "/>
</g>
<g id="Layer-1" data-name="P">
<path transform="matrix(0,-1,1,0,1130.611,135.8996)" stroke-width="4" stroke-linecap="round" stroke-dasharray=".004,12" stroke-dashoffset=".5" stroke-linejoin="round" fill="none" stroke="#8a0000" d="M 0 0 L 62 0 "/>
</g>
<g id="Layer-1" data-name="P">
<path transform="matrix(0,-1,1,0,695.6368,135.8996)" stroke-width="4" stroke-linecap="round" stroke-dasharray=".004,12" stroke-dashoffset=".5" stroke-linejoin="round" fill="none" stroke="#8a0000" d="M 0 0 L 62 0 "/>
</g>
<g id="Layer-1" data-name="P">
<path transform="matrix(0,-1,1,0,523.0629,235.64704)" stroke-width="4" stroke-linecap="round" stroke-dasharray=".004,12" stroke-dashoffset=".5" stroke-linejoin="round" fill="none" stroke="#8a0000" d="M 0 0 L 62 0 "/>
</g>
<g id="Layer-1" data-name="P">
<path transform="matrix(0,-1,1,0,924.7493,235.64704)" stroke-width="4" stroke-linecap="round" stroke-dasharray=".004,12" stroke-dashoffset=".5" stroke-linejoin="round" fill="none" stroke="#8a0000" d="M 0 0 L 62 0 "/>
</g>
<g id="Layer-1" data-name="P">
<path transform="matrix(0,-1,1,0,1408.682,235.64704)" stroke-width="4" stroke-linecap="round" stroke-dasharray=".004,12" stroke-dashoffset=".5" stroke-linejoin="round" fill="none" stroke="#5e5e5e" d="M 0 0 L 62 0 "/>
</g>
</g>
</g>
</svg>
